kYaru++/actions/16/gtk-connect.svg

<svg id="svg8" height="16" width="16" xmlns="http://www.w3.org/2000/svg">
  <path id="path2" d="m5.9941406 2c-1.258.015-2.1786406-.0302344-2.9316406.3847656-.3893526.2221491-.6865136.5761101-.8378906.9980469-.165.437-.2246094.9601875-.2246094 1.6171875v6c0 .658.059609 1.179188.2246094 1.617188.164.439.4618906.790046.8378906.998046.753.416 1.6736406.369766 2.9316406.384766h1.2058594v-1h-1.2c-1.259-.015-2.0900781-.05972-2.4550781-.261719-.184-.1-.2867657-.212656-.3847657-.472656-.0969999-.26-.1601562-.673625-.1601562-1.265625v-6c0-.592.063156-1.005625.1601562-1.265625.098-.26.2007657-.3716562.3847657-.4726562.365-.202 1.3950781-.2467188 2.6550781-.2617188v10.154946l1-.154946v-2h1.55v-1h-1.55v-4h1.55v-1l-1.55.0154946v-2.0154946-1h-1.2019531zm2.7558594 0v1 10h1v-10h.25c1.259.015 2.087125.059719 2.453125.2617188.184.1.289719.2126562.386719.4726562s.160156.673625.160156 1.265625v6c0 .592-.06316 1.005625-.160156 1.265625-.098.26-.201766.371656-.384766.472656-.366.202-1.197078.246719-2.455078.261719h-1.25v1h1.255859c1.258-.015 2.178641.03023 2.931641-.384766.389353-.222149.686514-.576109.837891-.998046.164-.438001.224609-.960188.224609-1.617188v-6c0-.658-.05961-1.1791875-.224609-1.6171875-.151377-.4219369-.448538-.7758979-.837891-.9980469-.752-.416-1.673641-.3697656-2.931641-.3847656z" fill="#444444"/>
</svg>

<?xml version="1.0" encoding="UTF-8" standalone="no"?>
<svg
   xmlns:dc="http://purl.org/dc/elements/1.1/"
   xmlns:cc="http://creativecommons.org/ns#"
   xmlns:rdf="http://www.w3.org/1999/02/22-rdf-syntax-ns#"
   xmlns:svg="http://www.w3.org/2000/svg"
   xmlns="http://www.w3.org/2000/svg"
   xmlns:sodipodi="http://sodipodi.sourceforge.net/DTD/sodipodi-0.dtd"
   xmlns:inkscape="http://www.inkscape.org/namespaces/inkscape"
   height="16"
   width="16"
   version="1.1"
   id="svg8"
   sodipodi:docname="gtk-connect.svg"
   inkscape:version="0.92.4 (5da689c313, 2019-01-14)">
  <metadata
     id="metadata14">
    <rdf:RDF>
      <cc:Work
         rdf:about="">
        <dc:format>image/svg+xml</dc:format>
        <dc:type
           rdf:resource="http://purl.org/dc/dcmitype/StillImage" />
        <dc:title></dc:title>
      </cc:Work>
    </rdf:RDF>
  </metadata>
  <defs
     id="defs12" />
  <sodipodi:namedview
     pagecolor="#ffffff"
     bordercolor="#666666"
     borderopacity="1"
     objecttolerance="10"
     gridtolerance="10"
     guidetolerance="10"
     inkscape:pageopacity="0"
     inkscape:pageshadow="2"
     inkscape:window-width="1920"
     inkscape:window-height="1016"
     id="namedview10"
     showgrid="true"
     inkscape:zoom="69.916667"
     inkscape:cx="8"
     inkscape:cy="8"
     inkscape:window-x="0"
     inkscape:window-y="27"
     inkscape:window-maximized="1"
     inkscape:current-layer="g6">
    <inkscape:grid
       type="xygrid"
       id="grid835" />
  </sodipodi:namedview>
  <g
     fill="gray"
     id="g6">
    <path
       style="line-height:normal;font-variant-ligatures:normal;font-variant-position:normal;font-variant-caps:normal;font-variant-numeric:normal;font-variant-alternates:normal;font-feature-settings:normal;text-indent:0;text-align:start;text-decoration:none;text-decoration-line:none;text-decoration-style:solid;text-decoration-color:#000000;text-transform:none;text-orientation:mixed;shape-padding:0;isolation:auto;mix-blend-mode:normal;marker:none"
       d="M 5.9941406,2 C 4.7361406,2.015 3.8155,1.9697656 3.0625,2.3847656 2.6731474,2.6069147 2.3759864,2.9608757 2.2246094,3.3828125 2.0596094,3.8198125 2,4.343 2,5 v 6 c 0,0.658 0.059609,1.179188 0.2246094,1.617188 0.164,0.439 0.4618906,0.790046 0.8378906,0.998046 C 3.8155,14.031234 4.7361406,13.985 5.9941406,14 H 7.2 V 13 H 6 C 4.741,12.985 3.9099219,12.94028 3.5449219,12.738281 c -0.184,-0.1 -0.2867657,-0.212656 -0.3847657,-0.472656 C 3.0631563,12.005625 3,11.592 3,11 V 5 C 3,4.408 3.063156,3.994375 3.1601562,3.734375 c 0.098,-0.26 0.2007657,-0.3716562 0.3847657,-0.4726562 C 3.9099219,3.0597188 4.94,3.015 6.2,3 V 13.154946 L 7.2,13 V 11 H 8.75 V 10 H 7.2 V 6 H 8.75 V 5 L 7.2,5.0154946 V 3 2 H 5.9980469 Z M 8.75,2 v 1 10 h 1 V 3 H 10 c 1.259,0.015 2.087125,0.059719 2.453125,0.2617188 0.184,0.1 0.289719,0.2126562 0.386719,0.4726562 C 12.936844,3.994375 13,4.408 13,5 v 6 c 0,0.592 -0.06316,1.005625 -0.160156,1.265625 -0.098,0.26 -0.201766,0.371656 -0.384766,0.472656 C 12.089078,12.940281 11.258,12.985 10,13 H 8.75 v 1 h 1.255859 c 1.258,-0.015 2.178641,0.03023 2.931641,-0.384766 0.389353,-0.222149 0.686514,-0.576109 0.837891,-0.998046 C 13.939391,12.179187 14,11.657 14,11 V 5 C 14,4.342 13.94039,3.8208125 13.775391,3.3828125 13.624014,2.9608756 13.326853,2.6069146 12.9375,2.3847656 12.1855,1.9687656 11.263859,2.015 10.005859,2 Z"
       id="path2"
       inkscape:connector-curvature="0"
       sodipodi:nodetypes="cccssccccccccssccccccccccccccccccccccccssscsccccccsscccc" />
  </g>
</svg>
